X:1
T:Intermezzo Number 2
T:Intermezzo r0c Op. 118, No. 2 
T:Johannes Brahms
T: 
T:arr for flutes D. Thimsen
T: Flute-Alto Flute-Piano 
C:J.S. Bach
%%score 1 2 { ( 3 5 8 ) | ( 4 6 7 ) }
L:1/8
Q:1/4=76
M:3/4
K:A
V:1 treble nm="Flute" snm="Fl."
V:2 treble transpose=-5 nm="Alto Flute" snm="Alt.Fl."
V:3 treble nm="Piano" snm="Pno."
V:5 treble 
V:8 treble 
V:4 bass 
V:6 bass 
V:7 bass 
V:1
"^Andante teneramente."!mp! (cB) |[Q:1/4=76] d4 (cB) | a4!<(! (A>B) | (B>e)!<)!!>(! (e2 d2 | %4
 A2!>)! !breath!G2)"_dolce"!mp! (cB) | d4 (cB) | a4!<(! (c>^d) | (^d>!<)!e)!>(! (e2 F2 | %8
 A2 !breath!G2)!>)!!p! (cB) | d4 (cB) | a4 (A>B) | (B>e) (e2!>(! d2 | %12
 A2 !breath!G2)!>)!"_dolce" (cB) | d4 (cB) | a4!<(! (c>^d) | (^d>e)!<)! e2!>(! (^DA) | %16
 (A2!>)! !breath!G2) z2 | z6 | z6 | z6 | z2 z2!<(! (A2!<)! |!>(! B2!>)! A2)!<(! (A2!<)! | %22
!>(!"_cresc." =c2!>)! A2) (A2 | ^f2 =c3 A) | !breath!G4 (FE) |"^legato" (G4 A2 | %26
 !breath!^A4) (^GF) | (B4 =c2 |!<(! c4) (=BA)!<)! |!<(! d3 (c2 B)!<)! | %30
!f! !breath!a4"_espress." z2 | z6 | z6 | z6"^calando" | z2 z2"_dolce"!mp! (^ga) | %35
!<(! ^f4!<)! (ga) |!<(! B4!<)!!<(! (B>c) | (c>d) (dc dG)!<)! | %38
 (G2 !breath!A2)!<(!"_cresc. un poco animato" (A2!<)! |!>(! B2!>)! A2)!<(! (A2!<)! | %40
!>(! B2!>)! A2) (A2 | d2) (c3 B) | (G2 !breath!A2) (A2 | B2 A2)!<(! (A2 | B2 A2) (A2!<)! | %45
 f2"^rit.   -   -   -   -   -   -   -   - piu lento"[Q:1/4=74] d3!>(! B) | %46
[Q:1/4=71] (G2[Q:1/4=68] !breath!A2)!>)!!p! E2- |[Q:1/4=65] E4[Q:1/4=60] (!>!E2 | %48
 !fermata!A4)!mp! z2 |"^iu tempo"[Q:1/4=76] z6 | z6 | z6 | z6 |!<(! (ca!<)!!>(! g2 f2!>)! | %54
 e2) (Aced |!p! c2) (F!>(!GAF | =F2"^rit.   -   -   -   -   -   u.c." !breath!G3)!>)! c | %57
 cf e2 d2 | c2 (Bdgf | !breath!B2) (Acfe | AGedBG) | A2 C2 A2 | G2 F2 z2 | E2 ^D2 z2 | C4- C (c- | %65
"^piu lento"[Q:1/4=66]!p! cf"^legato" ^e2 ^d2 | c2) (f2 ^e2 | ^d2 c2 ^B2- | %68
"^rit.   -   -   -   -" B2) c4- | !breath!c(f ^e2 ^d2 | c2) (f2 ^e2 | %71
"^rit.   -   -   -   -    t.c."[Q:1/4=64] ^d2[Q:1/4=62] c4- | %72
 c4- !breath!!fermata!c)"_espress." z |"^tempo primo"[Q:1/4=76] z2!pp! (c2"_cresc." f2 | %74
"^bell" !tenuto!e2 !tenuto!d2) z2 |"^bell" (!tenuto!d2 !tenuto!c2) z2 | %76
"^bell" (!tenuto!c2 !tenuto!B2) z2 |!f! (cc'bagf | e2) (Aced) | !breath!c2 (F^AcB) | %80
!>(! (=AFD=C ^C2)!>)! |"_rit.   -   -   -   -   -   -" z6 | z6[Q:1/4=72] |[Q:1/4=68] z6[Q:1/4=64] | %84
!p! !fermata!A4 (cB) |"^dolce"[Q:1/4=72] d4!<(! (cB) | !breath!a4!<)!!f! (g>f) | (f>=f) (fedB) | %88
!>(! (A2 !breath!G2)!>)!"^dolce" (cB) | d4 (cB) | (b3!<(! ag>f) | (f>e)!<)!!>(! (ec) (cF)!>)! | %92
 (A2 !breath!G2)"^espress." z2 | z6 | z6 | z6 | z2 z2!<(! (A2!<)! |!>(! B2!>)! A2)!<(! (A2!<)! | %98
!>(!"_cresc." =c2!>)! A2) (A2 | ^f2 =c3 A) | !breath!G4 (FE) |"^legato" (G4 A2 | %102
 !breath!^A4) (^GF) | (B4 =c2 | !breath!c4)!<(! (=BA) | (d3 c2 B)!<)! | %106
!f! !breath!a4"_espress." z2 | z6 | z6 | z6"^calando" | z2 z2"_dolce"!mp! (^ga) | %111
!<(! ^f4!<)! (ga) |!<(! !breath!B4!<)! (B>!<(!c) | (c>d) (dcdG)!<)! | %114
 (G2 !breath!A2)!<(!"_cresc. un piu animato" (A2!<)! |!>(! B2!>)! A2)!<(! (A2!<)! | %116
!>(! B2 A2)!>)! (A2 | d2) (c3 B) | (G2 !breath!A2) (A2 |!<(! B2 A2) (A2 | B2 !breath!A2) (A2!<)! | %121
 f2"^rit.   -   -   -   -   -   - piu lento"[Q:1/4=74] d3!>(! B) | %122
[Q:1/4=72] (G2[Q:1/4=68] !breath!A2)!>)!!p![Q:1/4=66]!>(! E2-!>)! | %123
[Q:1/4=64] E4[Q:1/4=60]!>(! (E2!>)! | !fermata!E4) |] %125
V:2
 z2 | z6 | z2 z2!p! (B2 | c2 d2 B2 | !>!F2 E2) z2 | z6 | z2 z2 (e2- | e2 f2 G2- | !>!G2 A2) z2 | %9
 z6 | z2 z2 (B>_B) | (_B>A) (cd)!>(! =B2 | (!>!F2 !breath!E2)!>)! z2 | z6 | z2 z2 (c>e) | %15
 (B>A) (=f^f) D2 | (!>!G2 !breath!A2)!mp!!<(! (A2!<)! |!>(! B2!>)! !tenuto!A2)!<(! (A2!<)! | %18
!>(! B2!>)! !tenuto!A2) (A2 | e2!<(! d2 c2!<)! |!>(! e2!>)! !breath!!tenuto!A2)!p! =F2- | F4 G2- | %22
"_cresc." G4 (B2- | B2 =f3 d) | !breath!c4 (BA | cE C) z (=FD | ^d^F !breath!^D) z (AF | %27
 e=G E) z (^G=F | fA !breath!F) z (=cF |!<(! d=G D) ^c3!<)! |!f! !breath!B4 d2 | (!>!c2 B2) (A=G) | %32
 (!>!F2 !breath!E2)!mp!"_dim." d2 | (!>!=c2!>(! _B2) (A=G) | (!>!=F2 !breath!E2)!>)!!p! (d2- | %35
!<(! dc!<)!!>(! dB)!>)! (d2- |!<(! dc!<)!!>(! d!breath!B)!>)!!p!!<(! d2 | c2 B2 A2!<)! | %38
"^poco animato" (!>!=G2 !breath!F2)"_cresc. un" z2 | z6 | z6 | z6 | z2 z2!pp! F2- | F4 =G2- | %44
 G4 (B2- | B2 =g3!>(! e) | (!>!c2 !breath!d2)!>)!!mp! (FE | =G4) (FE | !fermata!A4)!p! (f2- | %49
 fb a2 =g2 | f2) (e=gc'b | !breath!e2) (dfba | dca=gec) | z6 | z6 | z6 | z6 | z2 (F2 B2 | %58
"^bell" A2 !tenuto!=G2) z2 |"^bell" (E2 !tenuto!D2) z2 |"^bell" (F2 !tenuto!E2) z2 | %61
!<(! (fd'!<)!!>(! c'2 b2!>)! | a2) (dfa=g |!p! f2) (B!>(!cdB | _B2 !breath!c3)!>)! z | %65
 z2 z2!pp! (B2 | ^A2 G2 !breath!F2) | (B2 ^A2 G2 | ^A2) (F^A ^dc | !breath!=B2) (F2 B2 | %70
 ^A2 G2 F2) | (B2 ^A2 G2 | F2- !breath!!fermata!F3)!mp! (F- | FB A2"_cresc." !>!=G2 | F2) (E=G dc | %75
 !breath!E2) (DF cB) | (DC A=G E!breath!C) |!f! z2 (Ff ed | c2 !tenuto!B2) z2 | %79
 (A2 !tenuto!=G2) z2 | (F2 D2 C2) | z2 (3z!>(! (DF (3Bdf)!>)! |!p! (!>!a2 .=g2) z2 | %83
 z2 z2 (3(FAd) | (!fermata!f3 e)!pp! z2 | z6 | z2 z2!mf! (e>d) | (d>c) (cd=B=G) | %88
!>(! (!>!F2 !breath!!tenuto!E2)!>)! A2 | d4 A2 | (b2 g2 f>g) | (g>=f)!>(! (f^f) (AG)!>)! | %92
 (!>!G2 !breath!A2)!mf!!<(! (A2!<)! |!>(! B2!>)! !tenuto!A2)!<(! (A2!<)! | %94
!>(! B2!>)! !tenuto!A2) (A2 | e2!<(! d2 c2!<)! |!>(! e2!>)! !breath!!tenuto!A2)!p! =F2- | F4 G2- | %98
"_cresc." G4 (=B2- | B2 =f3 d) | !breath!c4 (BA | cE C) z (=FD | ^d^F ^D) z (AF | e=G E) z (^G=F | %104
 fA !breath!F) z!<(! (=cF | d=G D) ^c3!<)! |!f! !breath!B4 d2 | (!>!c2 !tenuto!B2) (A=G) | %108
 (!>!F2 !breath!!tenuto!E2)!mp!"_dim." d2 | (!>!=c2!>(! !tenuto!_B2) (A=G) | %110
 (!>!=F2 !breath!!tenuto!E2)!>)!!p! (d2- |!<(! dc!<)!!>(! dB)!>)! (d2- | %112
!<(! dc!<)!!>(! d!breath!B)!>)!!p! A2 | (c2 B2 A2) | %114
 (!>!=G2 !breath!!tenuto!F2)"_cresc. un piu animato" B2- | B4 B2- | B4 (B2 | d2) c4 | %118
 (!>!=G2 !breath!!tenuto!F2) F2- |!<(! F4 =G2- | G4 (B2-!<)! | B2 =g3 e) | %122
 !breath!A4!mp!!>(! (FE!>)! | =G4)!>(! (FE!>)! | !fermata!D4) |] %125
V:3
!p! AG | F4 (AG) | F4!<(! (F2 | E2!<)!!>(! E2 F2 | C2!>)! B,2)!p!!p! E2 | A4 [EA]2 | %6
 [ABf]4!<(! (F2 | F2!<)!!>(! E2 A,2- | A,2 G,2)!>)!!p! AG | F4!p! (AG) | F4!<(! (A2 | %11
 G2!<)! E2)!>(! z2 | z2 z2 E2!>)! | A4 [EA]2 | [ABf]4!<(! G>F | B2!<)! E2!>(! z2 | %16
 (A,2!>)! G,2)!p!!<(! [=G,=C]2-!<)! |!>(! [=G,=C]4!>)!!p!!<(! [=G,^C]2-!<)! | %18
!>(! [G,C]4!>)!!p! ([^G,D-]2 | [DE]2!<(! [DE]2 [DE]2!<)! |!>(! G2!>)! z2)!<(! =F2-!<)! | %21
!>(! F4!>)!!<(! (=C2-!<)! |!>(!"_cresc." C4)!>)! =C2- | C2 z2 z2 | z6 | (GB,[I:staff +1]G,E,=CA, | %26
[I:staff -1] ^A^C[I:staff +1]^A,E,EC |[I:staff -1] BD[I:staff +1]B,E,^D=C | %28
[I:staff -1] cE[I:staff +1]CE,=GC |[I:staff -1] A)DA,[I:staff +1](E,,E,^G,) | %30
!f!!mf![I:staff -1] z2 z2 [A,E]2 | [A,B,]4 z2 | z2 z2!p!!p!"_dim." [A,E]2 | [A,B,]4 z2 | z2 z2 e2 | %35
!<(! d4!<)! e2 |!<(! FG!<)!!>(! B,F!>)!!<(! E2 | E2 D2 D2!<)! | %38
 (D2 C2)!<(!"_cresc. un poco animato" [CF-]2!<)! |!>(! F4!>)!!<(! [DF]2-!<)! | %40
!>(! [DF]4!>)! ([DF]2 | [FA]2) [EG]4 | (D2 C2) F2- | F4!<(! F2- | F4 D2-!<)! | D2 z2 z2 | %46
 [CE]4 z2 | z6 | A4!p! z2 | z6 | z6 | z6 | z6 | A2 z2 z2 | G2 F2 z2 | E2 ^D2 z2 | C4- C z | z6 | %58
 z6 | z6 | z6 | z2 z4 | z6 | z6 | z6 |!pp! [F^A]2 [^EA]2 [^DA]2 | [C^A]2 [FA]2 [^EA]2 | %67
 [^D^A]2 [CA]2 [=C_G_B]2 | =A2 C-^E-^AG | (^F2 [^E^A]2 [^D=A]2 | [CG]2 [FG^B]2 [^EGc]2 | %71
 [^DG=B]2 [CGBc]2 [CFB]2 | [CF^A]2) !fermata![C^EGc]3 z | z2!p! (x2"_cresc." x2 | x2 x2) z2 | z6 | %76
 z6 | z6 | z6 | z6 | z2 z2 C!mf!^E, | z6 | A6 | D2 .C2 z2 | !fermata![^DFA]4!pp! [=DG]2 | F4 (AG) | %86
 F4!mf! z2 | z6 | z6 | AD A,F, A2 | ([AB]2 [AB]2 G>F) | [FB]>E!>(! E2 z2!>)! | %92
 ([A,^D]2 [G,E]2)!<(! [=G,=C]2-!<)! |!>(! [G,C]4!>)!!<(! [=G,^C]2-!<)! |!>(! [G,C]4!>)! ([^G,D-]2 | %95
 [DE]2!<(! [DE]2 [DE]2!<)! |!>(! G2)!>)! z2!<(! =F2-!<)! |!>(! F4!>)!!<(! =C2-!<)! | %98
!>(!"_cresc." C4!>)! =C2- | C2 z2 z2 | z6 | G4 A2 | ^A4 ^GF | B4 ^B2 | c4 =BA- | [Ad]3 (c2 B) | %106
 z4 [A,E]2 | z6 | z2 z2!p!"_dim." [A,E]2 | [A,B,]4 z2 | z2 z2 e2 |!<(! d4!<)! e2 | %112
!<(! FG!<)!!>(! B, z!>)! A2 | z6 | z2 z2"_cresc. un piu animato"!<(! [CF-]2!<)! | %115
!>(! F4!>)!!<(! D2-!<)! |!>(! D4!>)! (D2 | F2) E4 | (D2 C2) F2- |!<(! F4 F2- | F4 D2-!<)! | %121
 D2 z2 z2 | C4!p!!>(! z2!>)! | z6 | [EA]4 |] %125
V:4
 [A,,E,]2 | A,,,2 z2 [A,,D,]2 | (A,,,D,)(A,,F,,) (D,,D,) | ([D,E,G,]B,) ([C,E,]A,) (B,,,D,) | %4
 (E,,E,) (E,F,) =G,2 | F,,2 z2 E,,2 | (^D,,B,,) ([^D,F,]B,) ([A,,B,,]A,) | %7
 ([G,,B,,]G,) ([A,,F,]A,) B,,F, | (E,, B,,2 E,-) E,2 | A,,,2 z2 [A,,D,]2 | %10
 (A,,,D,)(A,,F,,) (D,,D,) | ([D,=F,G,]B,) ([C,E,B,]A,) (B,,,D,) | (E,,E,) (E,F,) =G,2 | %13
 F,,2 z2 E,,2 | (^D,,B,,) ([^D,F,]B,) ([A,,B,,]A,) | (B,,G,) (F,A,) (B,,F,) | %16
 E,,B,,E,B,, (E,,=G,, | =C,E,C,=G,,) (E,,G,, |^C,E,C,=G,,) ([E,,B,,]E, | ^G,2 A,2 B,2 | %20
 A,,E,G,E,) (A,,=C, |=F,A,F,=C,) (=F,,C, |^D,A,D,=C,) (^D,,C, | A,^D,A,=CFC) | (A,=CA,E,=C,A,,) | %25
 E,,2 x4 | E,,2 x4 | E,,2 x4 |!<(! E,,2 x4!<)! |!<(! F,,2 x4 | (D,,F,[D,A,][F,D])!<)! A,,2- | %31
 A,, A,,2 A,,- A,,2- | A,, A,,2 A,,- A,,2- | A,, A,,2 A,,- A,,2- | A,, A,,2 A,, [^C,E,A,E]2 | %35
 [D,,A,,]2 ([D,^F,]A,) E2 | [^D,,B,,]2 ([^D,F,]A,) (E,,E,) | [E,G,]C [B,,F,]B, [E,,B,,]E, | %38
 (A,,E,A,G,) (F,A, |CA,F,E,) (D,F, |A,F,D,C,) (B,,D, |F,A,) (E,G,B,D) | (A,,E,A,G,,) (F,,C, | %43
A,C,F,,E,,) (D,,A,, |F,A,,D,,C,,) (B,,,B,, |D,F,A,DFD) | (E,,C,E,A,) G,2 | [F,A,]4 [E,,G,]2 | %48
 !arpeggio!!fermata![A,,,C,A,]4 z2 | (3(F,,C,A, (3CA,F, (3FA,F, | (3(EA,F, (3D)A,F, (3B,,F,A,) | %51
 (3(DA,F, (3CA,F, (3C,E,A,) | (3CA,F, (3B,F,G,, (3C,^E,B, | (3F,,A,F, (3CA,F, (3AA,F, | %54
 (3(D,,A,,D, (3F,A,D,) (3(F,,D,A,) | (3(G,,E,G,) (3(G,,^D,F, (3^B,F,D,) | %56
 (3(C,,G,,C, (3^E,G,=B, ^E) z | (3(F,,C,A, (3CA,F, (3FA,F,) | (3(EA,F, (3DA,F, (3B,,F,A,) | %59
 (3(DA,F, (3CA,F, (3C,E,A,) | (3(CA,F, (3B,F,G,, (3C,^E,B,) | (3F,,A,F, (3CA,F, (3AA,F, | %62
 (3(D,,A,,D, (3F,A,D,) (3(F,,D,A,) | (3(G,,E,G,) (3(G,,^D,F, (3^B,F,D,) | %64
 (3(C,,G,,C, (3^E,G,=B, ^E) z | ([F,,C,^A,]2 [C,A,C]2 [F,A,F]2 | [^E,^A,^E]2 [^D,A,^D]2 [C,A,C]2 | %67
 [F,^A,F]2 [^E,A,]2 [_E,_G,_B,]2 | [=F,=A,=C]2 [^A,,^E,^A,]2 [^C,E,=B,]2) | %69
 ([F,,C,^A,]2 [C,A,]2 [F,=A,]2 | [^E,G,]2 [^D,G,]2 [C,G,]2 | [F,G,=B,]2 [^E,G,B,]2 [^D,F,]2 | %72
 [C,F,]2 !fermata![C,^E,G,B,]3) z | (3(F,,C,A,) (3(EA,F,) (3(DA,F,) | %74
 (3(CA,F,) (3(B,F,B,, (3B,,,B,,D,) | (3(B,F,C,) (3(A,F,A,, (3A,,,A,,C,) | %76
 [B,,D,]2 (3(G,,B,F,) (3(C,,^E,C,) | (3(F,,C,A, (3CA,F, (3A,F,C,) | %78
 (3(D,,A,,D, (3F,A,D, (3F,^A,D,) | (3(B,,,F,,B,, (3D,F,B,, (3D,=G,B,,) | %80
!<(! (3(C,,C,A,, (3F,C,C,,) (3(^E,!<)!B,,C,,) | ([B,,G,]2 [A,,F,]2) z2 | %82
 [F,A,]2 (3z (F,,A,,(3D,F,[I:staff -1]A,-) |[I:staff +1] E,,2- (3E,,E,A, z2 | %84
 !fermata!E,4- [A,,E,]2 | A,,,2 z2 [A,,D,]2 | (A,,,D,)(A,,F,,)(D,,D,) | %87
 ([F,A,][G,B,]) ([G,B,][A,C]) (B,,,B,,) | (E,,E,) E,F, =G,2 | F,,2 x2 E,,2 | %90
 ([^D,,B,,]^D,) ([F,,B,,]F,) ([A,,B,,]B,) | B,,E, E,F, F,A, | E,,B,,E,B,, (E,,=G,, | %93
=C,E,C,=G,,) (E,,G,, |^C,E,C,=G,,) ([E,,B,,]E, | G,2 A,2 B,2) | A,,E,G,E, (A,,=C, | %97
=F,A,F,=C,) (=F,,C, | ^D,A,D,=C,) (^D,,C, | A,^D,A,=CFC) | (A,=CA,E,=C,A,,) | E,,2 x4 | E,,2 x4 | %103
 E,,2 x4 |!<(! E,,2 x4 | F,,2 x4 | (D,,F,[D,A,][F,D])!<)! A,,2- | A,, A,,2 A,,- A,,2- | %108
 A,, A,,2 A,,- A,,2- | A,, A,,2 A,,- A,,2- | [=F,A,]4 [^C,E,A,E]2 | %111
 [D,,A,,]2 ([D,^F,]A,) [C,E,A,E]2 | [^D,,B,,]2 ([^D,F,]A,) E,,E, | %113
 ([E,G,]C) ([B,,F,]B,) [E,,B,,]E, | (A,,E,A,G,) (F,A, |CA,F,E,) (D,F, |A,F,D,C,) (B,,D, | %117
F,A,) (E,G,B,D) | (A,,2 A,G,,) (F,,2 | A,C,F,,E,,) (D,,2 | A,A,,D,,C,,) (B,,,2 | D,F,A,DFD) | %122
 (E,,C,E,A,) G,2 | [F,A,D]4 [E,,G,]2 | !arpeggio!!fermata![A,,,C,A,]4 |] %125
V:5
 x2 | FDA,F, x2 | x6 | x6 | x6 | ADA,F, x2 | x6 | x6 | x6 | FDA,F, x2 | x6 | x6 | x6 | ADA,F, x2 | %14
 x6 | x6 | x6 | x6 | x6 | x6 | D4 x2 | x6 | x6 | x6 | x6 | x6 | x6 | x6 | x6 | x6 | x6 | x6 | x6 | %33
 x6 | x6 | x6 | x6 | x6 | x6 | x6 | x6 | x6 | x6 | x6 | x6 | x6 | x6 | x6 | x6 | x6 | x6 | x6 | %52
 x6 | x6 | x6 | x6 | x6 | x6 | x6 | x6 | x6 | x6 | x6 | x6 | x6 | x6 | x6 | x6 | x6 | x6 | x6 | %71
 x6 | x2 z3 x | x6 | x6 | x6 | x6 | x6 | x6 | x6 | x6 | x6 | x6 | A,4 x2 | x6 | FDA,F, x2 | x6 | %87
 x6 | x6 | x6 | x6 | x6 | x6 | x6 | x6 | x6 | D4 x2 | x6 | x6 | x6 | x6 | %101
 (GB,[I:staff +1] G,!>!E,=CA,) |[I:staff -1] (^AC[I:staff +1] ^A,!>!E,EC) | %103
[I:staff -1] (BD[I:staff +1] B,!>!E,^D^B,) |[I:staff -1] (cE[I:staff +1] C!>!E,=GC) | %105
 x2 A,!>!E,,E,^G, | x6 | x6 | x6 | x6 | x6 | x6 | x6 | x6 | x6 | x6 | x6 | x6 | x6 | x6 | x6 | x6 | %122
 x6 | x6 | x4 |] %125
V:6
 x2 | x6 | x6 | x6 | x2 E,2 E,2 | x6 | x6 | x4 B,,2 | E,,4 A,,2 | x6 | x6 | x6 | x2 E,2 E,2 | x6 | %14
 x6 | G,,2 A,,2 B,,2 | E,,4 E,,2- | E,,4 E,,2- | E,,4 x2 | G,E,A,E,B,E, | A,,4 A,,2- | %21
 A,,4 =F,,2- | F,,4 ^D,,2 | x6 | x6 | x6 | x6 | x6 | x6 | x6 | x4 (C,,B,,, | D,,4) (C,,B,,, | %32
 D,,4) (C,,B,,, | D,,4) (=C,,B,,, | D,,4) x2 | x4 [C,E,A,]2 | x6 | x6 | A,,4 A,,2- | A,,4 A,,2- | %40
 A,,4 A,,2- | A,,2 A,,4 | A,,2 x2 F,,2 | x4 D,,2 | x4 B,,,2 | x6 | x4 E,,,2 | %47
 (E,,,E,,A,,D,) E,,D, | x6 | x2 C2 F2 | .E2 .D2 z2 | (.D2 .C2) z2 | (.C2 .B,2) z2 | x2 C2 A2 | x6 | %55
 x6 | x6 | x6 | x6 | x6 | x6 | x6 | x6 | x6 | x6 | x6 | x6 | x6 | x6 | x6 | x6 | x6 | x6 | x6 | %74
 x6 | x6 | x6 | x6 | x6 | x6 | x6 | F,,4 x2 | x6 | x6 | x6 | x6 | x6 | D,2 C,2 x2 | x2 E,2 E,2 | %89
 x6 | x6 | G,,2 A,,2 B,,2 | E,,4 E,,2- | E,,4 E,,2- | E,,4 x2 | ^G,E,A,E,B,E, | A,,4 A,,2- | %97
 A,,4 =F,,2- | F,,4 x2 | x6 | x6 | x6 | x6 | x6 | x6 | x6 | x4 (C,,B,,, | D,,4) (C,,B,,, | %108
 D,,4) (C,,B,,, | D,,4) (=C,,B,,, | D,,4) x2 | x6 | x6 | x6 | A,,4 A,,2- | A,,4 A,,2- | %116
 A,,4 A,,2- | A,,2 A,,4 | A,,E, x2 (F,,C,) | x4 D,,A,, | x4 B,,,B,, | x6 | x4 E,,,2 | %123
 (E,,,E,,A,,D,) E,,D, | x4 |] %125
V:7
 x2 | x6 | x6 | x6 | x6 | x6 | x6 | x6 | x6 | x6 | x6 | x6 | x6 | x6 | x6 | x6 | x6 | x6 | x6 | %19
 x6 | x6 | x6 | x6 | x6 | x6 | x6 | x6 | x6 | x6 | x6 | x6 | x4 [E,A,]2 | [F,A,]4 x2 | x4 [E,A,]2 | %34
 [=F,A,]4 x2 | x6 | x6 | x6 | x6 | x6 | x6 | x6 | x6 | x6 | x6 | x6 | x6 | x6 | x6 | x6 | x6 | x6 | %52
 x6 | x6 | x6 | x6 | x6 | x6 | x6 | x6 | x6 | x6 | x6 | x6 | x6 | x6 | x6 | x6 | x6 | x6 | x6 | %71
 x6 | x6 | x6 | x6 | x6 | x6 | x6 | x6 | x6 | x6 | x6 | x6 | x6 | x6 | x6 | x6 | x6 | x6 | x6 | %90
 x6 | x6 | x6 | x6 | x6 | x6 | x6 | x6 | x6 | x6 | x6 | x6 | x6 | x6 | x6 | x6 | x6 | x4 [E,A,]2 | %108
 [F,A,]4 x2 | x4 [E,A,]2 | A,, A,,2 A,, x2 | x6 | x6 | x6 | x6 | x6 | x6 | x6 | x6 | x6 | x6 | x6 | %122
 x6 | x6 | x4 |] %125
V:8
 x2 | x6 | x6 | x6 | x6 | x6 | x6 | x6 | x6 | x6 | x6 | x6 | x6 | x6 | x6 | x6 | x6 | x6 | x6 | %19
 x6 | x6 | x6 | x6 | x6 | x6 | x6 | x6 | x6 | x6 | x6 | x6 | x6 | x6 | x6 | x6 | x6 | x6 | x6 | %38
 x6 | x6 | x6 | x6 | x6 | x6 | x6 | x6 | x6 | x6 | x6 | x6 | x6 | x6 | x6 | x6 | x6 | x6 | x6 | %57
 x6 | x6 | x6 | x6 | x6 | x6 | x6 | x6 | x6 | x6 | x6 | x2 ^C2 [CE]2 | x6 | x6 | x6 | x6 | x6 | %74
 x6 | x6 | x6 | x6 | x6 | x6 | x6 | x6 | x6 | x6 | x6 | x6 | x6 | x6 | x6 | x6 | x6 | x6 | x6 | %93
 x6 | x6 | x6 | x6 | x6 | x6 | x6 | x6 | x6 | x6 | x6 | x6 | x6 | x6 | x6 | x6 | x6 | x6 | x6 | %112
 x6 | x6 | x6 | x6 | x6 | x6 | x6 | x6 | x6 | x6 | x6 | x6 | x4 |] %125

